static/img/kroki/cabea33520db11ba252a83d69d62bf75.svg

<?xml version="1.0" encoding="us-ascii" standalone="no"?><svg xmlns="http://www.w3.org/2000/svg" xmlns:xlink="http://www.w3.org/1999/xlink" contentStyleType="text/css" height="1033px" preserveAspectRatio="none" style="width:478px;height:1033px;" version="1.1" viewBox="0 0 478 1033" width="478px" zoomAndPan="magnify"><defs/><g><!--class azure_cosmos_db_restorable_mongo_db_collection--><g id="elem_azure_cosmos_db_restorable_mongo_db_collection"><rect codeLine="23" fill="#3D176E" height="74.0859" id="azure_cosmos_db_restorable_mongo_db_collection" rx="2.5" ry="2.5" style="stroke:#000D19;stroke-width:0.5;" width="464" x="7" y="660.14"/><ellipse cx="22" cy="680.0345" fill="#ADD1B2" rx="11" ry="11" style="stroke:#181818;stroke-width:1.0;"/><path d="M24.9688,685.6752 Q24.3906,685.972 23.75,686.1127 Q23.1094,686.2689 22.4063,686.2689 Q19.9063,686.2689 18.5781,684.6283 Q17.2656,682.972 17.2656,679.847 Q17.2656,676.722 18.5781,675.0658 Q19.9063,673.4095 22.4063,673.4095 Q23.1094,673.4095 23.75,673.5658 Q24.4063,673.722 24.9688,674.0189 L24.9688,676.7377 Q24.3438,676.1595 23.75,675.8939 Q23.1563,675.6127 22.5313,675.6127 Q21.1875,675.6127 20.5,676.6908 Q19.8125,677.7533 19.8125,679.847 Q19.8125,681.9408 20.5,683.0189 Q21.1875,684.0814 22.5313,684.0814 Q23.1563,684.0814 23.75,683.8158 Q24.3438,683.5345 24.9688,682.9564 L24.9688,685.6752 Z " fill="#000000"/><text fill="#D9B8FF" font-family="Helvetica" font-size="17" lengthAdjust="spacing" textLength="422" x="41" y="685.9198">azure_cosmos_db_restorable_mongo_db_collection</text><line style="stroke:#000D19;stroke-width:0.5;" x1="8" x2="470" y1="699.9291" y2="699.9291"/><text fill="#D9B8FF" font-family="sans-serif" font-size="14" font-weight="bold" lengthAdjust="spacing" textLength="246" x="18" y="721.9242">restorable_mongodb_collection</text><text fill="#D9B8FF" font-family="sans-serif" font-size="14" lengthAdjust="spacing" textLength="196" x="264" y="721.9242">: azure_restorable_database</text></g><!--class azure_restorable_database--><g id="elem_azure_restorable_database"><rect codeLine="26" fill="#3D176E" height="231.8672" id="azure_restorable_database" rx="2.5" ry="2.5" style="stroke:#000D19;stroke-width:0.5;" width="265" x="106.5" y="794.22"/><ellipse cx="121.5" cy="814.1145" fill="#ADD1B2" rx="11" ry="11" style="stroke:#181818;stroke-width:1.0;"/><path d="M124.4688,819.7552 Q123.8906,820.052 123.25,820.1927 Q122.6094,820.3489 121.9063,820.3489 Q119.4063,820.3489 118.0781,818.7083 Q116.7656,817.052 116.7656,813.927 Q116.7656,810.802 118.0781,809.1458 Q119.4063,807.4895 121.9063,807.4895 Q122.6094,807.4895 123.25,807.6458 Q123.9063,807.802 124.4688,808.0989 L124.4688,810.8177 Q123.8438,810.2395 123.25,809.9739 Q122.6563,809.6927 122.0313,809.6927 Q120.6875,809.6927 120,810.7708 Q119.3125,811.8333 119.3125,813.927 Q119.3125,816.0208 120,817.0989 Q120.6875,818.1614 122.0313,818.1614 Q122.6563,818.1614 123.25,817.8958 Q123.8438,817.6145 124.4688,817.0364 L124.4688,819.7552 Z " fill="#000000"/><text fill="#D9B8FF" font-family="Helvetica" font-size="17" lengthAdjust="spacing" textLength="223" x="140.5" y="819.9998">azure_restorable_database</text><line style="stroke:#000D19;stroke-width:0.5;" x1="107.5" x2="370.5" y1="834.0091" y2="834.0091"/><text fill="#D9B8FF" font-family="sans-serif" font-size="14" font-weight="bold" lengthAdjust="spacing" textLength="105" x="117.5" y="856.0042">can_undelete</text><text fill="#D9B8FF" font-family="sans-serif" font-size="14" lengthAdjust="spacing" textLength="48" x="222.5" y="856.0042">: string</text><text fill="#D9B8FF" font-family="sans-serif" font-size="14" font-weight="bold" lengthAdjust="spacing" textLength="167" x="117.5" y="882.3011">can_undelete_reason</text><text fill="#D9B8FF" font-family="sans-serif" font-size="14" lengthAdjust="spacing" textLength="48" x="284.5" y="882.3011">: string</text><text fill="#D9B8FF" font-family="sans-serif" font-size="14" font-weight="bold" lengthAdjust="spacing" textLength="134" x="117.5" y="908.5979">event_timestamp</text><text fill="#D9B8FF" font-family="sans-serif" font-size="14" lengthAdjust="spacing" textLength="48" x="251.5" y="908.5979">: string</text><text fill="#D9B8FF" font-family="sans-serif" font-size="14" font-weight="bold" lengthAdjust="spacing" textLength="118" x="117.5" y="934.8948">operation_type</text><text fill="#D9B8FF" font-family="sans-serif" font-size="14" lengthAdjust="spacing" textLength="48" x="235.5" y="934.8948">: string</text><text fill="#D9B8FF" font-family="sans-serif" font-size="14" font-weight="bold" lengthAdjust="spacing" textLength="72" x="117.5" y="961.1917">owner_id</text><text fill="#D9B8FF" font-family="sans-serif" font-size="14" lengthAdjust="spacing" textLength="48" x="189.5" y="961.1917">: string</text><text fill="#D9B8FF" font-family="sans-serif" font-size="14" font-weight="bold" lengthAdjust="spacing" textLength="151" x="117.5" y="987.4886">owner_resource_id</text><text fill="#D9B8FF" font-family="sans-serif" font-size="14" lengthAdjust="spacing" textLength="48" x="268.5" y="987.4886">: string</text><text fill="#D9B8FF" font-family="sans-serif" font-size="14" font-weight="bold" lengthAdjust="spacing" textLength="21" x="117.5" y="1013.7854">rid</text><text fill="#D9B8FF" font-family="sans-serif" font-size="14" lengthAdjust="spacing" textLength="48" x="138.5" y="1013.7854">: string</text></g><!--class microsoft_resource--><g id="elem_microsoft_resource"><rect codeLine="35" fill="#3D176E" height="100.3828" id="microsoft_resource" rx="2.5" ry="2.5" style="stroke:#000D19;stroke-width:0.5;" width="214" x="132" y="438.75"/><ellipse cx="153.3" cy="458.6445" fill="#ADD1B2" rx="11" ry="11" style="stroke:#181818;stroke-width:1.0;"/><path d="M156.2688,464.2852 Q155.6906,464.582 155.05,464.7227 Q154.4094,464.8789 153.7063,464.8789 Q151.2063,464.8789 149.8781,463.2383 Q148.5656,461.582 148.5656,458.457 Q148.5656,455.332 149.8781,453.6758 Q151.2063,452.0195 153.7063,452.0195 Q154.4094,452.0195 155.05,452.1758 Q155.7063,452.332 156.2688,452.6289 L156.2688,455.3477 Q155.6438,454.7695 155.05,454.5039 Q154.4563,454.2227 153.8313,454.2227 Q152.4875,454.2227 151.8,455.3008 Q151.1125,456.3633 151.1125,458.457 Q151.1125,460.5508 151.8,461.6289 Q152.4875,462.6914 153.8313,462.6914 Q154.4563,462.6914 155.05,462.4258 Q155.6438,462.1445 156.2688,461.5664 L156.2688,464.2852 Z " fill="#000000"/><text fill="#D9B8FF" font-family="Helvetica" font-size="17" lengthAdjust="spacing" textLength="158" x="173.7" y="464.5298">microsoft_resource</text><line style="stroke:#000D19;stroke-width:0.5;" x1="133" x2="345" y1="478.5391" y2="478.5391"/><text fill="#D9B8FF" font-family="sans-serif" font-size="14" font-weight="bold" lengthAdjust="spacing" textLength="35" x="143" y="500.5342">etag</text><text fill="#D9B8FF" font-family="sans-serif" font-size="14" lengthAdjust="spacing" textLength="48" x="178" y="500.5342">: string</text><text fill="#D9B8FF" font-family="sans-serif" font-size="14" font-weight="bold" lengthAdjust="spacing" textLength="144" x="143" y="526.8311">provisioning_state</text><text fill="#D9B8FF" font-family="sans-serif" font-size="14" lengthAdjust="spacing" textLength="48" x="287" y="526.8311">: string</text></g><!--class resource--><g id="elem_resource"><rect codeLine="39" fill="#3D176E" height="310.7578" id="resource" rx="2.5" ry="2.5" style="stroke:#000D19;stroke-width:0.5;" width="227" x="125.5" y="7"/><ellipse cx="194.25" cy="26.8945" fill="#ADD1B2" rx="11" ry="11" style="stroke:#181818;stroke-width:1.0;"/><path d="M197.2188,32.5352 Q196.6406,32.832 196,32.9727 Q195.3594,33.1289 194.6563,33.1289 Q192.1563,33.1289 190.8281,31.4883 Q189.5156,29.832 189.5156,26.707 Q189.5156,23.582 190.8281,21.9258 Q192.1563,20.2695 194.6563,20.2695 Q195.3594,20.2695 196,20.4258 Q196.6563,20.582 197.2188,20.8789 L197.2188,23.5977 Q196.5938,23.0195 196,22.7539 Q195.4063,22.4727 194.7813,22.4727 Q193.4375,22.4727 192.75,23.5508 Q192.0625,24.6133 192.0625,26.707 Q192.0625,28.8008 192.75,29.8789 Q193.4375,30.9414 194.7813,30.9414 Q195.4063,30.9414 196,30.6758 Q196.5938,30.3945 197.2188,29.8164 L197.2188,32.5352 Z " fill="#000000"/><text fill="#D9B8FF" font-family="Helvetica" font-size="17" lengthAdjust="spacing" textLength="71" x="219.75" y="32.7798">resource</text><line style="stroke:#000D19;stroke-width:0.5;" x1="126.5" x2="351.5" y1="46.7891" y2="46.7891"/><text fill="#D9B8FF" font-family="sans-serif" font-size="14" font-weight="bold" lengthAdjust="spacing" textLength="29" x="136.5" y="68.7842">age</text><text fill="#D9B8FF" font-family="sans-serif" font-size="14" lengthAdjust="spacing" textLength="66" x="165.5" y="68.7842">: duration</text><text fill="#D9B8FF" font-family="sans-serif" font-size="14" font-weight="bold" lengthAdjust="spacing" textLength="43" x="136.5" y="95.0811">atime</text><text fill="#D9B8FF" font-family="sans-serif" font-size="14" lengthAdjust="spacing" textLength="70" x="179.5" y="95.0811">: datetime</text><text fill="#D9B8FF" font-family="sans-serif" font-size="14" font-weight="bold" lengthAdjust="spacing" textLength="43" x="136.5" y="121.3779">ctime</text><text fill="#D9B8FF" font-family="sans-serif" font-size="14" lengthAdjust="spacing" textLength="70" x="179.5" y="121.3779">: datetime</text><text fill="#D9B8FF" font-family="sans-serif" font-size="14" font-weight="bold" lengthAdjust="spacing" textLength="14" x="136.5" y="147.6748">id</text><text fill="#D9B8FF" font-family="sans-serif" font-size="14" lengthAdjust="spacing" textLength="48" x="150.5" y="147.6748">: string</text><text fill="#D9B8FF" font-family="sans-serif" font-size="14" font-weight="bold" lengthAdjust="spacing" textLength="33" x="136.5" y="173.9717">kind</text><text fill="#D9B8FF" font-family="sans-serif" font-size="14" lengthAdjust="spacing" textLength="48" x="169.5" y="173.9717">: string</text><text fill="#D9B8FF" font-family="sans-serif" font-size="14" font-weight="bold" lengthAdjust="spacing" textLength="90" x="136.5" y="200.2686">last_access</text><text fill="#D9B8FF" font-family="sans-serif" font-size="14" lengthAdjust="spacing" textLength="66" x="226.5" y="200.2686">: duration</text><text fill="#D9B8FF" font-family="sans-serif" font-size="14" font-weight="bold" lengthAdjust="spacing" textLength="90" x="136.5" y="226.5654">last_update</text><text fill="#D9B8FF" font-family="sans-serif" font-size="14" lengthAdjust="spacing" textLength="66" x="226.5" y="226.5654">: duration</text><text fill="#D9B8FF" font-family="sans-serif" font-size="14" font-weight="bold" lengthAdjust="spacing" textLength="48" x="136.5" y="252.8623">mtime</text><text fill="#D9B8FF" font-family="sans-serif" font-size="14" lengthAdjust="spacing" textLength="70" x="184.5" y="252.8623">: datetime</text><text fill="#D9B8FF" font-family="sans-serif" font-size="14" font-weight="bold" lengthAdjust="spacing" textLength="43" x="136.5" y="279.1592">name</text><text fill="#D9B8FF" font-family="sans-serif" font-size="14" lengthAdjust="spacing" textLength="48" x="179.5" y="279.1592">: string</text><text fill="#D9B8FF" font-family="sans-serif" font-size="14" font-weight="bold" lengthAdjust="spacing" textLength="34" x="136.5" y="305.4561">tags</text><text fill="#D9B8FF" font-family="sans-serif" font-size="14" lengthAdjust="spacing" textLength="171" x="170.5" y="305.4561">: dictionary[string, string]</text></g><!--link azure_cosmos_db_restorable_mongo_db_collection to azure_restorable_database--><g id="link_azure_cosmos_db_restorable_mongo_db_collection_azure_restorable_database"><path codeLine="51" d="M239,734.45 C239,751.3 239,766.36 239,787.97 " fill="none" id="azure_cosmos_db_restorable_mongo_db_collection-to-azure_restorable_database" style="stroke:#FFAF37;stroke-width:2.0;"/><polygon fill="#FFAF37" points="239,793.97,243,784.97,239,788.97,235,784.97,239,793.97" style="stroke:#FFAF37;stroke-width:2.0;"/></g><!--reverse link microsoft_resource to azure_cosmos_db_restorable_mongo_db_collection--><g id="link_microsoft_resource_azure_cosmos_db_restorable_mongo_db_collection"><path codeLine="52" d="M239,557.61 C239,594.67 239,626.48 239,659.87 " fill="none" id="microsoft_resource-backto-azure_cosmos_db_restorable_mongo_db_collection" style="stroke:#FFAF37;stroke-width:2.0;"/><polygon fill="none" points="239,539.61,233,557.61,245,557.61,239,539.61" style="stroke:#FFAF37;stroke-width:2.0;"/></g><!--reverse link resource to microsoft_resource--><g id="link_resource_microsoft_resource"><path codeLine="53" d="M239,336.06 C239,379.65 239,405.98 239,438.42 " fill="none" id="resource-backto-microsoft_resource" style="stroke:#FFAF37;stroke-width:2.0;"/><polygon fill="none" points="239,318.06,233,336.06,245,336.06,239,318.06" style="stroke:#FFAF37;stroke-width:2.0;"/></g><!--SRC=[bLJ1Yjim4BtdAmHx2pKaNTfiIYbi0wMzBANRMobcB8qT4Kio8paXs_RVAzb9i6HlbhtPyzxCUsyyU2i5CbIDEpA5ga2oCxkJkW42nUw9p65ZQaFifYoXl5sbu1UZtOk41r38lcAzHoSvf8oVMybt6grbRmVGP-2xYaohHJ_U4MZh8THkmDhKOEszSoIBrk70Z5WNTsMPCjEXDxTYkNgF8veXWNIYB1OBiLodb1UbhkQ-C1xb4xBbS6aFnk78vaYYOrrr6HW3awEWP_nPZzz12AahzcvG-z5x8eqKrH-t8CmXi4kexL36EYGqxjZWPfGArtUYN4sIlpr7dl6mEWPFBM7EZLN6vgB82Qqp14MDkJAwCg76JLqZTz9ezcSsdwUKY36VVpZD7D04E2Z0n_aNgKumEW4EElT-iKQ7OPxrLwch1F3TO7kz2uvxVzIvayeF1jL4c6cG83ZCmrfYwE0_Gox5HD5RD2rnJ56Ati-nbEHah2dTfQ_BWmwggBiXivVMU_6lkRSQnJmFYqP0rL54ssS8bH2pg_dsy1psCr5BZFiJYGjUo-N0kVzj90eTqZRYP6-0g0aT3IhUgW_TJvJTOG0TV_NOcnFdju_wolFBiazNhcjY_H__PbdsoYEV9TtZiRF_]--></g></svg>

<svg xmlns="http://www.w3.org/2000/svg" width="478" height="1033" viewBox="0 0 478 1033"><rect width="464" height="74.086" x="7" y="660.14" fill="#3D176E" rx="2.5" ry="2.5" style="stroke:#000d19;stroke-width:.5"/><circle cx="22" cy="680.034" r="11" fill="#ADD1B2" style="stroke:#181818;stroke-width:1"/><path d="M24.969 685.675q-.578.297-1.219.438-.64.156-1.344.156-2.5 0-3.828-1.64-1.312-1.657-1.312-4.782t1.312-4.781q1.328-1.657 3.828-1.657.703 0 1.344.157.656.156 1.219.453v2.719q-.625-.579-1.219-.844-.594-.281-1.219-.281-1.343 0-2.031 1.078-.687 1.062-.687 3.156t.687 3.172q.688 1.062 2.031 1.062.625 0 1.219-.265.594-.282 1.219-.86z"/><text x="41" y="685.92" fill="#D9B8FF" font-family="Helvetica" font-size="17" textLength="422">azure_cosmos_db_restorable_mongo_db_collection</text><path d="M8 699.929h462" style="stroke:#000d19;stroke-width:.5"/><text x="18" y="721.924" fill="#D9B8FF" font-family="sans-serif" font-size="14" font-weight="bold" textLength="246">restorable_mongodb_collection</text><text x="264" y="721.924" fill="#D9B8FF" font-family="sans-serif" font-size="14" textLength="196">: azure_restorable_database</text><rect width="265" height="231.867" x="106.5" y="794.22" fill="#3D176E" rx="2.5" ry="2.5" style="stroke:#000d19;stroke-width:.5"/><circle cx="121.5" cy="814.115" r="11" fill="#ADD1B2" style="stroke:#181818;stroke-width:1"/><path d="M124.469 819.755q-.578.297-1.219.438-.64.156-1.344.156-2.5 0-3.828-1.64-1.312-1.657-1.312-4.782t1.312-4.781q1.328-1.656 3.828-1.656.703 0 1.344.156.656.156 1.219.453v2.719q-.625-.578-1.219-.844-.594-.281-1.219-.281-1.344 0-2.031 1.078-.687 1.062-.687 3.156t.687 3.172q.688 1.062 2.031 1.062.625 0 1.219-.265.594-.281 1.219-.86z"/><text x="140.5" y="820" fill="#D9B8FF" font-family="Helvetica" font-size="17" textLength="223">azure_restorable_database</text><path d="M107.5 834.009h263" style="stroke:#000d19;stroke-width:.5"/><text x="117.5" y="856.004" fill="#D9B8FF" font-family="sans-serif" font-size="14" font-weight="bold" textLength="105">can_undelete</text><text x="222.5" y="856.004" fill="#D9B8FF" font-family="sans-serif" font-size="14" textLength="48">: string</text><text x="117.5" y="882.301" fill="#D9B8FF" font-family="sans-serif" font-size="14" font-weight="bold" textLength="167">can_undelete_reason</text><text x="284.5" y="882.301" fill="#D9B8FF" font-family="sans-serif" font-size="14" textLength="48">: string</text><text x="117.5" y="908.598" fill="#D9B8FF" font-family="sans-serif" font-size="14" font-weight="bold" textLength="134">event_timestamp</text><text x="251.5" y="908.598" fill="#D9B8FF" font-family="sans-serif" font-size="14" textLength="48">: string</text><text x="117.5" y="934.895" fill="#D9B8FF" font-family="sans-serif" font-size="14" font-weight="bold" textLength="118">operation_type</text><text x="235.5" y="934.895" fill="#D9B8FF" font-family="sans-serif" font-size="14" textLength="48">: string</text><text x="117.5" y="961.192" fill="#D9B8FF" font-family="sans-serif" font-size="14" font-weight="bold" textLength="72">owner_id</text><text x="189.5" y="961.192" fill="#D9B8FF" font-family="sans-serif" font-size="14" textLength="48">: string</text><text x="117.5" y="987.489" fill="#D9B8FF" font-family="sans-serif" font-size="14" font-weight="bold" textLength="151">owner_resource_id</text><text x="268.5" y="987.489" fill="#D9B8FF" font-family="sans-serif" font-size="14" textLength="48">: string</text><text x="117.5" y="1013.785" fill="#D9B8FF" font-family="sans-serif" font-size="14" font-weight="bold" textLength="21">rid</text><text x="138.5" y="1013.785" fill="#D9B8FF" font-family="sans-serif" font-size="14" textLength="48">: string</text><rect width="214" height="100.383" x="132" y="438.75" fill="#3D176E" rx="2.5" ry="2.5" style="stroke:#000d19;stroke-width:.5"/><circle cx="153.3" cy="458.644" r="11" fill="#ADD1B2" style="stroke:#181818;stroke-width:1"/><path d="M156.269 464.285q-.578.297-1.219.438-.64.156-1.344.156-2.5 0-3.828-1.64-1.312-1.657-1.312-4.782t1.312-4.781q1.328-1.656 3.828-1.656.703 0 1.344.156.656.156 1.219.453v2.719q-.625-.579-1.219-.844-.594-.281-1.219-.281-1.343 0-2.031 1.078-.687 1.062-.687 3.156t.687 3.172q.688 1.062 2.031 1.062.625 0 1.219-.265.594-.281 1.219-.86z"/><text x="173.7" y="464.53" fill="#D9B8FF" font-family="Helvetica" font-size="17" textLength="158">microsoft_resource</text><path d="M133 478.539h212" style="stroke:#000d19;stroke-width:.5"/><text x="143" y="500.534" fill="#D9B8FF" font-family="sans-serif" font-size="14" font-weight="bold" textLength="35">etag</text><text x="178" y="500.534" fill="#D9B8FF" font-family="sans-serif" font-size="14" textLength="48">: string</text><text x="143" y="526.831" fill="#D9B8FF" font-family="sans-serif" font-size="14" font-weight="bold" textLength="144">provisioning_state</text><text x="287" y="526.831" fill="#D9B8FF" font-family="sans-serif" font-size="14" textLength="48">: string</text><rect width="227" height="310.758" x="125.5" y="7" fill="#3D176E" rx="2.5" ry="2.5" style="stroke:#000d19;stroke-width:.5"/><circle cx="194.25" cy="26.895" r="11" fill="#ADD1B2" style="stroke:#181818;stroke-width:1"/><path d="M197.219 32.535q-.578.297-1.219.438-.64.156-1.344.156-2.5 0-3.828-1.64-1.312-1.657-1.312-4.782t1.312-4.781q1.328-1.656 3.828-1.656.703 0 1.344.156.656.156 1.219.453v2.719q-.625-.578-1.219-.844-.594-.281-1.219-.281-1.344 0-2.031 1.078-.687 1.062-.687 3.156t.687 3.172q.688 1.062 2.031 1.062.625 0 1.219-.265.594-.281 1.219-.86z"/><text x="219.75" y="32.78" fill="#D9B8FF" font-family="Helvetica" font-size="17" textLength="71">resource</text><path d="M126.5 46.789h225" style="stroke:#000d19;stroke-width:.5"/><text x="136.5" y="68.784" fill="#D9B8FF" font-family="sans-serif" font-size="14" font-weight="bold" textLength="29">age</text><text x="165.5" y="68.784" fill="#D9B8FF" font-family="sans-serif" font-size="14" textLength="66">: duration</text><text x="136.5" y="95.081" fill="#D9B8FF" font-family="sans-serif" font-size="14" font-weight="bold" textLength="43">atime</text><text x="179.5" y="95.081" fill="#D9B8FF" font-family="sans-serif" font-size="14" textLength="70">: datetime</text><text x="136.5" y="121.378" fill="#D9B8FF" font-family="sans-serif" font-size="14" font-weight="bold" textLength="43">ctime</text><text x="179.5" y="121.378" fill="#D9B8FF" font-family="sans-serif" font-size="14" textLength="70">: datetime</text><text x="136.5" y="147.675" fill="#D9B8FF" font-family="sans-serif" font-size="14" font-weight="bold" textLength="14">id</text><text x="150.5" y="147.675" fill="#D9B8FF" font-family="sans-serif" font-size="14" textLength="48">: string</text><text x="136.5" y="173.972" fill="#D9B8FF" font-family="sans-serif" font-size="14" font-weight="bold" textLength="33">kind</text><text x="169.5" y="173.972" fill="#D9B8FF" font-family="sans-serif" font-size="14" textLength="48">: string</text><text x="136.5" y="200.269" fill="#D9B8FF" font-family="sans-serif" font-size="14" font-weight="bold" textLength="90">last_access</text><text x="226.5" y="200.269" fill="#D9B8FF" font-family="sans-serif" font-size="14" textLength="66">: duration</text><text x="136.5" y="226.565" fill="#D9B8FF" font-family="sans-serif" font-size="14" font-weight="bold" textLength="90">last_update</text><text x="226.5" y="226.565" fill="#D9B8FF" font-family="sans-serif" font-size="14" textLength="66">: duration</text><text x="136.5" y="252.862" fill="#D9B8FF" font-family="sans-serif" font-size="14" font-weight="bold" textLength="48">mtime</text><text x="184.5" y="252.862" fill="#D9B8FF" font-family="sans-serif" font-size="14" textLength="70">: datetime</text><text x="136.5" y="279.159" fill="#D9B8FF" font-family="sans-serif" font-size="14" font-weight="bold" textLength="43">name</text><text x="179.5" y="279.159" fill="#D9B8FF" font-family="sans-serif" font-size="14" textLength="48">: string</text><text x="136.5" y="305.456" fill="#D9B8FF" font-family="sans-serif" font-size="14" font-weight="bold" textLength="34">tags</text><text x="170.5" y="305.456" fill="#D9B8FF" font-family="sans-serif" font-size="14" textLength="171">: dictionary[string, string]</text><path fill="none" d="M239 734.45v53.52" style="stroke:#ffaf37;stroke-width:2"/><path fill="#FFAF37" d="m239 793.97 4-9-4 4-4-4z" style="stroke:#ffaf37;stroke-width:2"/><path fill="none" d="M239 557.61v102.26m0-120.26-6 18h12zm0-203.55v102.36m0-120.36-6 18h12z" style="stroke:#ffaf37;stroke-width:2"/></svg>
